X: 39707
T: Terry Bingham's
R: barndance
M: 4/4
K: Amajor
(3AAA|A2Ac eABc|dcde f2ed|ceae ceAB|cBB/B/B B2ec|
A2Ac eABc|dcde f2ed|ceae ceBd|cAA2 A2:|
eg|agaf eABc|dcde f2ed|ceae ceAB|cBB/B/B B2eg|
agaf eABc|dcde f2ed|ceae ceBd|cAA2 A2eg|
agaf eABc|dcde f2ed|ceae ceAB|cBB/B/B B2ec|
A2Ac eABc|dcde f2ed|ceae ceBd|cAA2 A2z2|

